X:60
T:Rose in the Heather, The
R:jig
D:Frankie Gavin: Frankie Goes to Town
Z:id:hn-jig-60
M:6/8
K:D
D2F EDB,|DFA BAF|ABd ede|fdB AFE|~F3 EFE|DFA Bcd|edB AFE|FDD D3:|
|:fdB ABd|faa afd|~g3 fed|Bee ede|fdB ABd|faa afa|baf gfe|1 fdd d2e:|2 fdB AFE||
